Sources/FrostedUI/Resources/Icons.xcassets/palette32.imageset/palette-32.svg

<svg width="32" height="32" viewBox="0 0 32 32" fill="none" xmlns="http://www.w3.org/2000/svg" data-fui-icon="true">
  <path
    d="M16 1C24.302 1.00013 31.0321 7.73022 31.0322 16.0322C31.0322 17.3037 30.875 18.5399 30.5771 19.7207C30.0907 21.6485 28.2514 22.7089 26.4277 22.709H20.2764C18.8776 22.7091 17.6357 23.6047 17.1934 24.9316L16.2217 27.8457C15.6097 29.6817 13.7245 31.0458 11.6865 30.4365C5.48755 28.5825 0.967773 22.836 0.967773 16.0322C0.967888 7.73021 7.69798 1.00011 16 1ZM16 2.5C8.52641 2.50011 2.46789 8.55864 2.46777 16.0322C2.46777 22.155 6.53476 27.3297 12.1162 28.999C13.2008 29.3232 14.3802 28.627 14.7988 27.3711L15.7705 24.457C16.417 22.5175 18.232 21.2091 20.2764 21.209H26.4277C27.7358 21.2089 28.8423 20.4623 29.1221 19.3535C29.3899 18.2917 29.5322 17.179 29.5322 16.0322C29.5321 8.55865 23.4736 2.50013 16 2.5ZM8.5 18.5C9.32843 18.5 10 19.1716 10 20C10 20.8284 9.32843 21.5 8.5 21.5C7.67157 21.5 7 20.8284 7 20C7 19.1716 7.67157 18.5 8.5 18.5ZM8.5 10.5C9.32843 10.5 10 11.1716 10 12C10 12.8284 9.32843 13.5 8.5 13.5C7.67157 13.5 7 12.8284 7 12C7 11.1716 7.67157 10.5 8.5 10.5ZM23.5 10.5C24.3284 10.5 25 11.1716 25 12C25 12.8284 24.3284 13.5 23.5 13.5C22.6716 13.5 22 12.8284 22 12C22 11.1716 22.6716 10.5 23.5 10.5ZM16 6C16.8284 6 17.5 6.67157 17.5 7.5C17.5 8.32843 16.8284 9 16 9C15.1716 9 14.5 8.32843 14.5 7.5C14.5 6.67157 15.1716 6 16 6Z"
    fill="currentColor"
  />
</svg>

<svg xmlns="http://www.w3.org/2000/svg" width="32" height="32" fill="none" data-fui-icon="true" viewBox="0 0 32 32"><path fill="currentColor" d="M16 1c8.302 0 15.032 6.73 15.032 15.032 0 1.272-.157 2.508-.455 3.689-.486 1.927-2.326 2.988-4.15 2.988h-6.15a3.25 3.25 0 0 0-3.084 2.223l-.971 2.914c-.612 1.836-2.498 3.2-4.536 2.59C5.489 28.583.969 22.837.969 16.032.968 7.73 7.698 1 16 1m0 1.5C8.526 2.5 2.468 8.559 2.468 16.032c0 6.123 4.067 11.298 9.648 12.967 1.085.324 2.264-.372 2.683-1.628l.972-2.914a4.75 4.75 0 0 1 4.505-3.248h6.152c1.308 0 2.414-.747 2.694-1.855.268-1.062.41-2.175.41-3.322C29.532 8.56 23.474 2.5 16 2.5m-7.5 16a1.5 1.5 0 1 1 0 3 1.5 1.5 0 0 1 0-3m0-8a1.5 1.5 0 1 1 0 3 1.5 1.5 0 0 1 0-3m15 0a1.5 1.5 0 1 1 0 3 1.5 1.5 0 0 1 0-3M16 6a1.5 1.5 0 1 1 0 3 1.5 1.5 0 0 1 0-3"/></svg>
